packages/icon/src/svg/analytics.icon.svg

<svg aria-label="analytics icon" viewBox="0 0 24 24"><path fill-rule="evenodd" clip-rule="evenodd" d="M5.999 8.724A1.976 1.976 0 015 9a2 2 0 111.999-2.008l4.002 2.286C11.296 9.106 11.635 9 12 9c.178 0 .347.031.511.074l4.563-4.562A1.997 1.997 0 0117 4a2 2 0 112 2c-.178 0-.348-.029-.512-.073l-4.562 4.562c.043.165.074.333.074.511a2 2 0 01-3.999.01L5.999 8.724zM22 11v10h2v2H0v-2h2v-8c0-.551.448-1 1-1h4c.552 0 1 .449 1 1v8h1v-5c0-.551.448-1 1-1h4c.552 0 1 .449 1 1v5h1V11c0-.551.448-1 1-1h4c.552 0 1 .449 1 1zM4 21h2v-7H4v7zm9 0v-4h-2v4h2zm5 0h2v-9h-2v9z"/></svg>

<svg width="24" height="24" viewBox="0 0 24 24" fill="none" xmlns="http://www.w3.org/2000/svg">
<path fill-rule="evenodd" clip-rule="evenodd" d="M5.99902 8.724C5.70398 8.896 5.36499 9 5 9C3.896 9 3 8.104 3 7C3 5.896 3.896 5 5 5C6.10205 5 6.99402 5.89099 6.99902 6.99194L11.001 9.27795C11.296 9.10596 11.635 9 12 9C12.178 9 12.347 9.03101 12.511 9.07397L17.074 4.51196C17.031 4.349 17 4.17896 17 4C17 2.896 17.896 2 19 2C20.104 2 21 2.896 21 4C21 5.104 20.104 6 19 6C18.822 6 18.652 5.97095 18.488 5.927L13.926 10.489C13.969 10.654 14 10.822 14 11C14 12.104 13.104 13 12 13C10.8979 13 10.006 12.11 10.001 11.01L5.99902 8.724ZM22 11V21H24V23H0V21H2V13C2 12.449 2.448 12 3 12H7C7.552 12 8 12.449 8 13V21H9V16C9 15.449 9.448 15 10 15H14C14.552 15 15 15.449 15 16V21H16V11C16 10.449 16.448 10 17 10H21C21.552 10 22 10.449 22 11ZM4 21H6V14H4V21ZM13 21V17H11V21H13ZM18 21H20V12H18V21Z" fill="white"/>
</svg>
